!!!OTL: 167. Freylekhs
!!!Genre:	Freylekhs
!!!Mode:	Major
!!!Listening/dance:	dance
!!!:	*g:
!!!One_Mode:	no
**kern
*I"P1
*clefG2
*k[f#]
*G:
*M2/4
*>A
=1
4dd
(16ddLL
16cc)
(16cc
16bJJ)
=2
(16dLL
16g
16b
16ddJJ)
(16ddLL
16cc)
(16cc
16bJJ)
=3
(16dLL
16g
16b
16ddJJ)
(16ddLL
16cc)
(16cc
16bJJ)
=4
(8ddTL
8bJ)
(8ddTL
8bJ)
=5
4dd
(16ddLL
16cc)
(16cc
16bJJ)
=6
16dLL
16g
16b
16ddJJ
(16ddLL
16cc)
(16cc
16bJJ)
=7
(8qee/
8ddL)
16ccL
16bJJ
16aLL
16b
16cc
16aJJ
=8
2g
=9!|:
*>B
*k[b-e-]
*>bM
*g:
!LO:TX:a:i:t=G-minor
16f#XLL
16gJJ
4a
8a
=10
8b-L
16aL
16gJJ
16f#XLL
16g
16a
16gJJ
=11
16f#XLL
16gJJ
4a
8g
=12
16b-LL
16a
16g
16f#XJJ
4g
=13:|!|:
*>C
*k[f#]
*>eM
*G:
!LO:TX:a:i:t=G-major
(16ccLL
16ee)
16a'
16cc'JJ
(16bLL
16dd)
16g'
16b'JJ
=14
(16aLL
16cc)
16f#'
16a'JJ
(16gLL
16b)
16dd'
16b'JJ
=15
(16ccLL
16ee)
16a'
16cc'JJ
(16bLL
16dd)
16g'
16b'JJ
=16
16aLL
16cc
16f#
16aJJ
4g
=:|!
*-
